Adwaita++/status/16/battery-level-30.svg

<svg height="16.001" width="16" xmlns="http://www.w3.org/2000/svg">
  <path d="m5 11v2h6v-2z" fill="#f57900"/>
  <path d="m5.469 0c-.49 0-.796.216-1.032.456-.235.24-.437.556-.437 1.03v.514h-2v14h12v-14h-2v-.406l-.002-.028a1.616 1.616 0 0 0 -.416-1.012c-.236-.278-.62-.584-1.2-.552l.057-.002zm.531 2h4v2h2v10h-8v-10h2z" fill="#474747"/>
</svg>

<svg xmlns="http://www.w3.org/2000/svg" width="16" height="16.001">
    <path d="M5 11v2h6v-2z" fill="#f57900"/>
    <path d="M5.469 0c-.49 0-.796.216-1.032.456C4.202.696 4 1.012 4 1.486V2H2v14h12V2h-2v-.406l-.002-.028a1.616 1.616 0 0 0-.416-1.012c-.236-.278-.62-.584-1.2-.552L10.439 0zM6 2h4v2h2v10H4V4h2z" style="line-height:normal;font-variant-ligatures:normal;font-variant-position:normal;font-variant-caps:normal;font-variant-numeric:normal;font-variant-alternates:normal;font-feature-settings:normal;text-indent:0;text-align:start;text-decoration-line:none;text-decoration-style:solid;text-decoration-color:#000;text-transform:none;text-orientation:mixed;white-space:normal;shape-padding:0;isolation:auto;mix-blend-mode:normal;solid-color:#000;solid-opacity:1;marker:none" color="#bebebe" font-weight="400" font-family="sans-serif" overflow="visible" fill="#474747"/>
</svg>
